X: 20405
T: John Doherty's
R: reel
M: 4/4
K: Adorian
EAAB cABd|cABA ~G2GF|[M:2/4] GAGD|[M:4/4] EAAB cABd|cABG ~A2AG|
EAAB|cABd|cABA ~G2GF|[M:2/4] GAGD|[M:4/4] EAAB cABd|cABG A2 ^cd|
e2e^c d2cd|efe^c d2cd|efe^c dfed|^cAB^G A2 ^cd|
e2e^c d2cd|efe^c d2cd|eage dged|cABd cABG||

